X:90
T: Autumn Apples
S: "The Piper's Dream"
C: Pat McNulty
Z: B.Black
L: 1/8
M: 4/4
R: reel
K: G
Bc | dG (3GFG Bcde | cF (3FEF ABcd | BGBc dgfg |\
dcAB c2 Bc |
dG (3GFG Bcde | cF (3FEF ABcd | (3gfg bg fdde |\
fdcA G2 :|
Bc | dcde dg (3gfg | ac'ba gfge | df (3fef abag |\
fdab c'baf |
dcde dg (3gfg | bc'ba gfge | dfag (3fga de |\
dcAF G2 :|
